X:66
T:Dubious Heritage
R:reel
C:Paul S. Cranford
O:Cape Breton Island
S:http://www.cranfordpub.com
D:currently unrecorded
B:currently unpublished in book form
Z:psc
H:                                                        copyrights Cranford Publications, SOCAN
L:1/8
Q:333
M:C|
K:G
D|G,B,DG B2 AG|(3(EFG) DB, CA,A,c|BGDB, CA,A,c|(3(Bcd) AF ~G3:|
||g|(3(fga) ed cAAg|fdad bdag|(3(fga) ed fded|cAFA ~G3 e|
(3(fga) ed cAAg|fdad bdac'|bgaf gbag|fdcA ~G3|]
